size-m.svg

<svg  viewBox="0 0 24 24" fill="currentColor"><path  d="M9 7C7.9 7 7 7.9 7 9V17H9V9H11V16H13V9H15V17H17V9C17 7.9 16.11 7 15 7H9Z"/></svg>

<svg fill="currentColor" viewBox="0 0 24 24"><path d="M9 7c-1.1 0-2 .9-2 2v8h2V9h2v7h2V9h2v8h2V9a2 2 0 0 0-2-2z"/></svg>
